src/assets/logos/visualstudio.svg

<svg viewBox="0 0 188 188" fill="none" xmlns="http://www.w3.org/2000/svg">
<g clip-path="url(#clip0)">
<g clip-path="url(#clip1)">
<mask id="mask0" style="mask-type:alpha" maskUnits="userSpaceOnUse" x="8" y="8" width="177" height="177">
<path d="M40.6211 157.524L11.2134 135.467C10.2965 134.786 9.55244 133.899 9.04142 132.877C8.5304 131.855 8.26668 130.728 8.27155 129.586V63.4144C8.26668 62.2721 8.5304 61.1447 9.04142 60.1232C9.55244 59.1016 10.2965 58.2145 11.2134 57.5334L40.6211 35.4762C39.8311 36.218 39.2341 37.1414 38.8819 38.1663C38.5297 39.1912 38.433 40.2865 38.6001 41.3572V151.643C38.433 152.714 38.5297 153.809 38.8819 154.834C39.2341 155.859 39.8311 156.782 40.6211 157.524Z" fill="white"/>
<path d="M181.456 38.8951C180.244 38.0992 178.825 37.6773 177.375 37.682C176.436 37.6744 175.504 37.8522 174.634 38.2052C173.763 38.5581 172.971 39.0793 172.302 39.7388L171.789 40.2544L113.117 96.5001L80.6548 127.637L50.6212 156.421L50.1057 156.937C49.4375 157.597 48.6453 158.119 47.7747 158.473C46.904 158.826 45.9721 159.004 45.0325 158.996C43.4419 158.993 41.8948 158.477 40.6211 157.524L11.2134 135.467C12.7075 136.589 14.5731 137.1 16.4305 136.895C18.2879 136.69 19.9973 135.785 21.2108 134.364L53.8554 96.4642L80.6548 65.3637L127.601 10.8439C128.282 10.0365 129.132 9.38792 130.091 8.94356C131.05 8.4992 132.094 8.26983 133.151 8.27152C134.601 8.26684 136.02 8.68874 137.231 9.48467L181.456 38.8951Z" fill="white"/>
<path d="M181.456 154.105L137.342 183.515C135.841 184.495 134.037 184.901 132.261 184.658C130.486 184.415 128.857 183.539 127.675 182.192L80.6548 127.637L53.8554 96.4642L21.2108 58.5975C19.9865 57.1909 18.2755 56.2994 16.4211 56.102C14.5668 55.9046 12.7064 56.416 11.2134 57.5334L40.6211 35.4762C41.8948 34.5234 43.4419 34.007 45.0325 34.0038C45.9721 33.9959 46.904 34.1738 47.7747 34.5272C48.6453 34.8807 49.4375 35.4028 50.1057 36.0634L50.6212 36.579L80.6548 65.3637L113.117 96.5001L171.789 152.746L172.302 153.261C172.971 153.921 173.763 154.442 174.634 154.795C175.504 155.148 176.436 155.326 177.375 155.318C178.825 155.323 180.244 154.901 181.456 154.105Z" fill="white"/>
<path d="M184.729 45.0325V147.968C184.73 149.181 184.432 150.376 183.861 151.446C183.29 152.517 182.464 153.43 181.456 154.105L137.342 183.515C138.35 182.84 139.176 181.926 139.747 180.855C140.317 179.784 140.615 178.589 140.614 177.375V15.6248C140.598 14.4022 140.281 13.2025 139.691 12.1316C139.101 11.0607 138.256 10.1516 137.231 9.48467L181.456 38.8951C182.461 39.5728 183.286 40.4866 183.856 41.5565C184.427 42.6265 184.726 43.8199 184.729 45.0325Z" fill="white"/>
</mask>
<g mask="url(#mask0)">
<path d="M40.6211 157.524L11.2134 135.467C10.2965 134.786 9.55244 133.898 9.04142 132.877C8.5304 131.855 8.26668 130.728 8.27155 129.586V63.4143C8.26668 62.272 8.5304 61.1446 9.04142 60.1231C9.55244 59.1015 10.2965 58.2144 11.2134 57.5333L40.6211 35.4761C39.8311 36.2179 39.2341 37.1413 38.8819 38.1662C38.5297 39.1911 38.433 40.2864 38.6001 41.3571V151.643C38.433 152.714 38.5297 153.809 38.8819 154.834C39.2341 155.859 39.8311 156.782 40.6211 157.524Z" fill="#5E438F"/>
<g filter="url(#filter0_dd)">
<path d="M181.455 38.8951C180.244 38.0992 178.825 37.6773 177.375 37.682C176.436 37.6744 175.504 37.8522 174.633 38.2052C173.763 38.5581 172.971 39.0793 172.302 39.7388L171.789 40.2544L140.539 70.2163L113.117 96.5001L80.6543 127.637L50.6207 156.421L50.1052 156.937C49.437 157.597 48.6448 158.119 47.7742 158.473C46.9035 158.826 45.9716 159.004 45.032 158.996C43.4414 158.993 41.8943 158.477 40.6206 157.524L11.2129 135.467C12.7069 136.589 14.5726 137.1 16.43 136.895C18.2874 136.69 19.9968 135.785 21.2103 134.364L37.6815 115.249L53.8549 96.4643L80.6543 65.3637L127.6 10.8439C128.282 10.0365 129.132 9.38792 130.091 8.94356C131.049 8.4992 132.094 8.26983 133.15 8.27152C134.6 8.26684 136.019 8.68874 137.231 9.48467L181.455 38.8951Z" fill="url(#paint0_linear)"/>
</g>
<g filter="url(#filter1_dd)">
<path d="M181.455 154.105L137.341 183.516C135.841 184.496 134.037 184.901 132.261 184.658C130.485 184.415 128.857 183.54 127.675 182.192L80.6543 127.637L53.8549 96.4644L37.6815 77.7158L21.2103 58.5978C19.986 57.1911 18.2749 56.2997 16.4206 56.1022C14.5663 55.9048 12.7059 56.4162 11.2129 57.5335L40.6206 35.4764C41.8943 34.5236 43.4414 34.0072 45.032 34.0041C45.9716 33.9961 46.9035 34.174 47.7742 34.5275C48.6448 34.8809 49.437 35.403 50.1052 36.0637L50.6207 36.5792L80.6543 65.3638L113.117 96.5002L140.578 122.823L171.789 152.746L172.302 153.262C172.971 153.921 173.763 154.442 174.633 154.795C175.504 155.148 176.436 155.326 177.375 155.318C178.825 155.323 180.244 154.901 181.455 154.105Z" fill="url(#paint1_linear)"/>
</g>
<g filter="url(#filter2_dd)">
<path d="M184.729 45.0321V147.967C184.73 149.181 184.432 150.375 183.861 151.446C183.29 152.516 182.464 153.43 181.456 154.105L137.341 183.515C138.35 182.84 139.176 181.926 139.746 180.855C140.317 179.784 140.615 178.589 140.614 177.375V15.6244C140.598 14.4019 140.281 13.2021 139.691 12.1312C139.101 11.0603 138.256 10.1512 137.231 9.48428L181.456 38.8947C182.461 39.5724 183.285 40.4862 183.856 41.5562C184.426 42.6261 184.726 43.8196 184.729 45.0321Z" fill="url(#paint2_linear)"/>
</g>
</g>
</g>
</g>
<defs>
<filter id="filter0_dd" x="6.03194" y="4.38577" width="180.604" height="161.087" filterUnits="userSpaceOnUse" color-interpolation-filters="sRGB">
<feFlood flood-opacity="0" result="BackgroundImageFix"/>
<feColorMatrix in="SourceAlpha" type="matrix" values="0 0 0 0 0 0 0 0 0 0 0 0 0 0 0 0 0 0 127 0" result="hardAlpha"/>
<feOffset dy="0.246095"/>
<feGaussianBlur stdDeviation="0.246095"/>
<feColorMatrix type="matrix" values="0 0 0 0 0 0 0 0 0 0 0 0 0 0 0 0 0 0 0.24 0"/>
<feBlend mode="normal" in2="BackgroundImageFix" result="effect1_dropShadow"/>
<feColorMatrix in="SourceAlpha" type="matrix" values="0 0 0 0 0 0 0 0 0 0 0 0 0 0 0 0 0 0 127 0" result="hardAlpha"/>
<feOffset dy="1.29524"/>
<feGaussianBlur stdDeviation="2.59048"/>
<feColorMatrix type="matrix" values="0 0 0 0 0 0 0 0 0 0 0 0 0 0 0 0 0 0 0.22 0"/>
<feBlend mode="normal" in2="effect1_dropShadow" result="effect2_dropShadow"/>
<feBlend mode="normal" in="SourceGraphic" in2="effect2_dropShadow" result="shape"/>
</filter>
<filter id="filter1_dd" x="6.03194" y="30.1181" width="180.604" height="161.085" filterUnits="userSpaceOnUse" color-interpolation-filters="sRGB">
<feFlood flood-opacity="0" result="BackgroundImageFix"/>
<feColorMatrix in="SourceAlpha" type="matrix" values="0 0 0 0 0 0 0 0 0 0 0 0 0 0 0 0 0 0 127 0" result="hardAlpha"/>
<feOffset dy="0.246095"/>
<feGaussianBlur stdDeviation="0.246095"/>
<feColorMatrix type="matrix" values="0 0 0 0 0 0 0 0 0 0 0 0 0 0 0 0 0 0 0.24 0"/>
<feBlend mode="normal" in2="BackgroundImageFix" result="effect1_dropShadow"/>
<feColorMatrix in="SourceAlpha" type="matrix" values="0 0 0 0 0 0 0 0 0 0 0 0 0 0 0 0 0 0 127 0" result="hardAlpha"/>
<feOffset dy="1.29524"/>
<feGaussianBlur stdDeviation="2.59048"/>
<feColorMatrix type="matrix" values="0 0 0 0 0 0 0 0 0 0 0 0 0 0 0 0 0 0 0.22 0"/>
<feBlend mode="normal" in2="effect1_dropShadow" result="effect2_dropShadow"/>
<feBlend mode="normal" in="SourceGraphic" in2="effect2_dropShadow" result="shape"/>
</filter>
<filter id="filter2_dd" x="121.688" y="-6.05857" width="78.583" height="205.117" filterUnits="userSpaceOnUse" color-interpolation-filters="sRGB">
<feFlood flood-opacity="0" result="BackgroundImageFix"/>
<feColorMatrix in="SourceAlpha" type="matrix" values="0 0 0 0 0 0 0 0 0 0 0 0 0 0 0 0 0 0 127 0" result="hardAlpha"/>
<feOffset/>
<feGaussianBlur stdDeviation="0.129524"/>
<feColorMatrix type="matrix" values="0 0 0 0 0 0 0 0 0 0 0 0 0 0 0 0 0 0 0.24 0"/>
<feBlend mode="normal" in2="BackgroundImageFix" result="effect1_dropShadow"/>
<feColorMatrix in="SourceAlpha" type="matrix" values="0 0 0 0 0 0 0 0 0 0 0 0 0 0 0 0 0 0 127 0" result="hardAlpha"/>
<feOffset/>
<feGaussianBlur stdDeviation="7.77143"/>
<feColorMatrix type="matrix" values="0 0 0 0 0 0 0 0 0 0 0 0 0 0 0 0 0 0 0.3 0"/>
<feBlend mode="normal" in2="effect1_dropShadow" result="effect2_dropShadow"/>
<feBlend mode="normal" in="SourceGraphic" in2="effect2_dropShadow" result="shape"/>
</filter>
<linearGradient id="paint0_linear" x1="151.642" y1="8.27149" x2="20.6141" y2="140.148" gradientUnits="userSpaceOnUse">
<stop stop-color="#7252AA"/>
<stop offset="1" stop-color="#7252AA"/>
</linearGradient>
<linearGradient id="paint1_linear" x1="24.8145" y1="40.4371" x2="147.966" y2="178.293" gradientUnits="userSpaceOnUse">
<stop stop-color="#AE7FE2"/>
<stop offset="1" stop-color="#9A70D4"/>
</linearGradient>
<linearGradient id="paint2_linear" x1="160.457" y1="5.93579" x2="160.457" y2="183.367" gradientUnits="userSpaceOnUse">
<stop stop-color="#D59DFF"/>
<stop offset="1" stop-color="#C18EF1"/>
</linearGradient>
<clipPath id="clip0">
<rect width="176.457" height="176.457" fill="white" transform="translate(8.27148 8.27148)"/>
</clipPath>
<clipPath id="clip1">
<rect width="176.457" height="176.457" fill="white" transform="translate(8.27148 8.27148)"/>
</clipPath>
</defs>
</svg>

<svg xmlns="http://www.w3.org/2000/svg" fill="none" viewBox="0 0 188 188">
  <g clip-path="url(#a)">
    <g clip-path="url(#b)">
      <mask id="c" width="177" height="177" x="8" y="8" maskUnits="userSpaceOnUse" style="mask-type:alpha">
        <path fill="#fff" d="m40.621 157.524-29.408-22.057a7.284 7.284 0 0 1-2.941-5.881V63.414a7.287 7.287 0 0 1 2.941-5.88l29.408-22.058a6.658 6.658 0 0 0-2.02 5.881v110.286a6.66 6.66 0 0 0 2.02 5.881Z"/>
        <path fill="#fff" d="M181.456 38.895a7.39 7.39 0 0 0-4.081-1.213 7.139 7.139 0 0 0-5.073 2.057l-.513.515L113.117 96.5l-32.462 31.137-30.034 28.784-.515.516a7.137 7.137 0 0 1-5.073 2.059 7.386 7.386 0 0 1-4.412-1.472l-29.408-22.057a7.346 7.346 0 0 0 9.998-1.103l32.644-37.9 26.8-31.1 46.946-54.52a7.238 7.238 0 0 1 5.55-2.572 7.385 7.385 0 0 1 4.08 1.213l44.225 29.41Z"/>
        <path fill="#fff" d="m181.456 154.105-44.114 29.41a7.447 7.447 0 0 1-9.667-1.323l-47.02-54.555-26.8-31.173-32.644-37.867a7.386 7.386 0 0 0-9.998-1.064l29.408-22.057a7.39 7.39 0 0 1 4.411-1.472 7.132 7.132 0 0 1 5.074 2.06l.515.515 30.034 28.785L113.117 96.5l58.672 56.246.513.515a7.136 7.136 0 0 0 5.073 2.057 7.387 7.387 0 0 0 4.081-1.213Z"/>
        <path fill="#fff" d="M184.729 45.032v102.936a7.375 7.375 0 0 1-3.273 6.137l-44.114 29.41a7.38 7.38 0 0 0 3.272-6.14V15.625a7.44 7.44 0 0 0-3.383-6.14l44.225 29.41a7.419 7.419 0 0 1 3.273 6.137Z"/>
      </mask>
      <g mask="url(#c)">
        <path fill="#5E438F" d="m40.621 157.524-29.408-22.057a7.292 7.292 0 0 1-2.941-5.881V63.414a7.287 7.287 0 0 1 2.941-5.88l29.408-22.058a6.658 6.658 0 0 0-2.02 5.881v110.286a6.66 6.66 0 0 0 2.02 5.881Z"/>
        <g filter="url(#d)">
          <path fill="url(#e)" d="M181.455 38.895a7.385 7.385 0 0 0-4.08-1.213 7.147 7.147 0 0 0-5.073 2.057l-.513.515-31.25 29.962L113.117 96.5l-32.463 31.137-30.033 28.784-.516.516a7.137 7.137 0 0 1-5.073 2.059 7.386 7.386 0 0 1-4.411-1.472l-29.408-22.057a7.346 7.346 0 0 0 9.997-1.103l16.471-19.115 16.174-18.785 26.8-31.1 46.945-54.52a7.251 7.251 0 0 1 5.55-2.572 7.39 7.39 0 0 1 4.081 1.213l44.224 29.41Z"/>
        </g>
        <g filter="url(#f)">
          <path fill="url(#g)" d="m181.455 154.105-44.114 29.411a7.443 7.443 0 0 1-9.666-1.324l-47.02-54.555-26.8-31.173-16.173-18.748L21.21 58.598a7.387 7.387 0 0 0-9.997-1.065L40.62 35.477a7.389 7.389 0 0 1 4.411-1.472 7.128 7.128 0 0 1 5.073 2.06l.516.515 30.033 28.785L113.117 96.5l27.461 26.323 31.211 29.923.513.516a7.155 7.155 0 0 0 5.073 2.056 7.382 7.382 0 0 0 4.08-1.213Z"/>
        </g>
        <g filter="url(#h)">
          <path fill="url(#i)" d="M184.729 45.032v102.935a7.38 7.38 0 0 1-3.273 6.138l-44.115 29.41a7.383 7.383 0 0 0 3.273-6.14V15.625a7.44 7.44 0 0 0-3.383-6.14l44.225 29.41a7.428 7.428 0 0 1 3.273 6.137Z"/>
        </g>
      </g>
    </g>
  </g>
  <defs>
    <linearGradient id="e" x1="151.642" x2="20.614" y1="8.271" y2="140.148" gradientUnits="userSpaceOnUse">
      <stop stop-color="#7252AA"/>
      <stop offset="1" stop-color="#7252AA"/>
    </linearGradient>
    <linearGradient id="g" x1="24.814" x2="147.966" y1="40.437" y2="178.293" gradientUnits="userSpaceOnUse">
      <stop stop-color="#AE7FE2"/>
      <stop offset="1" stop-color="#9A70D4"/>
    </linearGradient>
    <linearGradient id="i" x1="160.457" x2="160.457" y1="5.936" y2="183.367" gradientUnits="userSpaceOnUse">
      <stop stop-color="#D59DFF"/>
      <stop offset="1" stop-color="#C18EF1"/>
    </linearGradient>
    <filter id="d" width="180.604" height="161.087" x="6.032" y="4.386" color-interpolation-filters="sRGB" filterUnits="userSpaceOnUse">
      <feFlood flood-opacity="0" result="BackgroundImageFix"/>
      <feColorMatrix in="SourceAlpha" result="hardAlpha" values="0 0 0 0 0 0 0 0 0 0 0 0 0 0 0 0 0 0 127 0"/>
      <feOffset dy=".246"/>
      <feGaussianBlur stdDeviation=".246"/>
      <feColorMatrix values="0 0 0 0 0 0 0 0 0 0 0 0 0 0 0 0 0 0 0.24 0"/>
      <feBlend in2="BackgroundImageFix" result="effect1_dropShadow"/>
      <feColorMatrix in="SourceAlpha" result="hardAlpha" values="0 0 0 0 0 0 0 0 0 0 0 0 0 0 0 0 0 0 127 0"/>
      <feOffset dy="1.295"/>
      <feGaussianBlur stdDeviation="2.59"/>
      <feColorMatrix values="0 0 0 0 0 0 0 0 0 0 0 0 0 0 0 0 0 0 0.22 0"/>
      <feBlend in2="effect1_dropShadow" result="effect2_dropShadow"/>
      <feBlend in="SourceGraphic" in2="effect2_dropShadow" result="shape"/>
    </filter>
    <filter id="f" width="180.604" height="161.085" x="6.032" y="30.118" color-interpolation-filters="sRGB" filterUnits="userSpaceOnUse">
      <feFlood flood-opacity="0" result="BackgroundImageFix"/>
      <feColorMatrix in="SourceAlpha" result="hardAlpha" values="0 0 0 0 0 0 0 0 0 0 0 0 0 0 0 0 0 0 127 0"/>
      <feOffset dy=".246"/>
      <feGaussianBlur stdDeviation=".246"/>
      <feColorMatrix values="0 0 0 0 0 0 0 0 0 0 0 0 0 0 0 0 0 0 0.24 0"/>
      <feBlend in2="BackgroundImageFix" result="effect1_dropShadow"/>
      <feColorMatrix in="SourceAlpha" result="hardAlpha" values="0 0 0 0 0 0 0 0 0 0 0 0 0 0 0 0 0 0 127 0"/>
      <feOffset dy="1.295"/>
      <feGaussianBlur stdDeviation="2.59"/>
      <feColorMatrix values="0 0 0 0 0 0 0 0 0 0 0 0 0 0 0 0 0 0 0.22 0"/>
      <feBlend in2="effect1_dropShadow" result="effect2_dropShadow"/>
      <feBlend in="SourceGraphic" in2="effect2_dropShadow" result="shape"/>
    </filter>
    <filter id="h" width="78.583" height="205.117" x="121.688" y="-6.059" color-interpolation-filters="sRGB" filterUnits="userSpaceOnUse">
      <feFlood flood-opacity="0" result="BackgroundImageFix"/>
      <feColorMatrix in="SourceAlpha" result="hardAlpha" values="0 0 0 0 0 0 0 0 0 0 0 0 0 0 0 0 0 0 127 0"/>
      <feOffset/>
      <feGaussianBlur stdDeviation=".13"/>
      <feColorMatrix values="0 0 0 0 0 0 0 0 0 0 0 0 0 0 0 0 0 0 0.24 0"/>
      <feBlend in2="BackgroundImageFix" result="effect1_dropShadow"/>
      <feColorMatrix in="SourceAlpha" result="hardAlpha" values="0 0 0 0 0 0 0 0 0 0 0 0 0 0 0 0 0 0 127 0"/>
      <feOffset/>
      <feGaussianBlur stdDeviation="7.771"/>
      <feColorMatrix values="0 0 0 0 0 0 0 0 0 0 0 0 0 0 0 0 0 0 0.3 0"/>
      <feBlend in2="effect1_dropShadow" result="effect2_dropShadow"/>
      <feBlend in="SourceGraphic" in2="effect2_dropShadow" result="shape"/>
    </filter>
    <clipPath id="a">
      <path fill="#fff" d="M8.271 8.271h176.457v176.457H8.271z"/>
    </clipPath>
    <clipPath id="b">
      <path fill="#fff" d="M8.271 8.271h176.457v176.457H8.271z"/>
    </clipPath>
  </defs>
</svg>
